!!!COM: Beethoven, Ludwig van
!!!CDT: 1770///-1827///
!!!ODT: 1798///-1800///
!!!OTL: String Quartet No. 5 in A Major, Op. 18, No. 5
!!!OPS: Op. 18
!!!ONM: No. 5
!!!OMV: Mvmt. 2
!!!OMD: Menuetto
!!!PDT: 1801///
!!!PPP: Vienna
!!!PPR: C. Haslinger qm Tobias
!!!ODE: Dem F&uuml;rsten von Lobkowitz gewidmet
!!!MPD: 1798///-1800///
**kern	**dynam	**kern	**dynam	**kern	**dynam	**kern	**dynam
*staff4	*staff4	*staff3	*staff3	*staff2	*staff2	*staff1	*staff1
*Icello	*Icello	*Iviola	*Iviola	*Ivioln	*Ivioln	*Ivioln	*Ivioln
*>[A,B,B1,B,B2,C,C,D,D,A,B,B2]	*>[A,B,B1,B,B2,C,C,D,D,A,B,B2]	*>[A,B,B1,B,B2,C,C,D,D,A,B,B2]	*>[A,B,B1,B,B2,C,C,D,D,A,B,B2]	*>[A,B,B1,B,B2,C,C,D,D,A,B,B2]	*>[A,B,B1,B,B2,C,C,D,D,A,B,B2]	*>[A,B,B1,B,B2,C,C,D,D,A,B,B2]	*>[A,B,B1,B,B2,C,C,D,D,A,B,B2]
*>norep[A,B,B2,C,D,A,B,B2]	*>norep[A,B,B2,C,D,A,B,B2]	*>norep[A,B,B2,C,D,A,B,B2]	*>norep[A,B,B2,C,D,A,B,B2]	*>norep[A,B,B2,C,D,A,B,B2]	*>norep[A,B,B2,C,D,A,B,B2]	*>norep[A,B,B2,C,D,A,B,B2]	*>norep[A,B,B2,C,D,A,B,B2]
*>A	*>A	*>A	*>A	*>A	*>A	*>A	*>A
*clefF4	*clefF4	*clefC3	*clefC3	*clefG2	*clefG2	*clefG2	*clefG2
*k[f#c#g#]	*k[f#c#g#]	*k[f#c#g#]	*k[f#c#g#]	*k[f#c#g#]	*k[f#c#g#]	*k[f#c#g#]	*k[f#c#g#]
*A:	*A:	*A:	*A:	*A:	*A:	*A:	*A:
*M3/4	*M3/4	*M3/4	*M3/4	*M3/4	*M3/4	*M3/4	*M3/4
*MM138	*MM138	*MM138	*MM138	*MM138	*MM138	*MM138	*MM138
4r	.	4r	.	4r	.	4cc#\	p
=1	=1	=1	=1	=1	=1	=1	=1
2.r	.	2.r	.	4r	.	2.ee\	.
.	.	.	.	4cc#\	p	.	.
.	.	.	.	4a/	.	.	.
=2	=2	=2	=2	=2	=2	=2	=2
2.r	.	2.r	.	4r	.	2.b\	.
.	.	.	.	4g#/	.	.	.
.	.	.	.	4e/	.	.	.
=3	=3	=3	=3	=3	=3	=3	=3
2.r	.	2.r	.	4r	.	(8dd/L	.
.	.	.	.	.	.	8cc#/)	.
.	.	.	.	4c#/	.	(8b/	.
.	.	.	.	.	.	8a/)	.
.	.	.	.	4A/	.	(8g#/	.
.	.	.	.	.	.	8a/J)	.
=4	=4	=4	=4	=4	=4	=4	=4
2.r	.	2.r	.	4e/	.	(4cc#\	.
.	.	.	.	4r	.	4b\)	.
.	.	.	.	4r	.	4cc#\	.
=5	=5	=5	=5	=5	=5	=5	=5
2.r	.	2.r	.	4r	.	2.ee\	.
.	.	.	.	(4cc#\	.	.	.
.	.	.	.	4a/)	.	.	.
=6	=6	=6	=6	=6	=6	=6	=6
2.r	.	2.r	.	4r	.	2cc#\	.
.	.	.	.	4a/	.	.	.
.	.	.	.	4f#/	.	4cc#\	.
=7	=7	=7	=7	=7	=7	=7	=7
2.r	.	2.r	.	4r	.	2.aa\	.
.	.	.	.	4ff#\	.	.	.
.	.	.	.	4dd#\	.	.	.
=8	=8	=8	=8	=8	=8	=8	=8
2.r	.	2.r	.	4r	.	2dd#\	.
.	.	.	.	4b\	.	.	.
.	.	.	.	4a/	.	4dd#\	.
=9	=9	=9	=9	=9	=9	=9	=9
2.r	.	2.r	.	4r	.	2.bb\	.
.	.	.	.	4g#/	.	.	.
.	.	.	.	4e/	.	.	.
=10	=10	=10	=10	=10	=10	=10	=10
2.r	.	2.r	.	4r	.	(8aa\L	.
.	.	.	.	.	.	8gg#\)	.
.	.	.	.	4cc#\	.	(8ff#\	.
.	.	.	.	.	.	8ee\)	.
.	.	.	.	4b\	.	(8dd#\	.
.	.	.	.	.	.	8ee\J)	.
=11	=11	=11	=11	=11	=11	=11	=11
2.r	.	2.r	.	4a/	.	(4ff#\	.
.	.	.	.	4f#/	.	4aa\)	.
.	.	.	.	4b\	.	4dd#\	.
=12	=12	=12	=12	=12	=12	=12	=12
2.r	.	4r	.	4e/	.	4ee\	.
.	.	4r	.	4r	.	4r	.
.	.	4c#\	p	4r	.	4r	.
=13	=13	=13	=13	=13	=13	=13	=13
4r	.	2.e\	.	4r	.	4r	.
(4c#\	p	.	.	4A/	p	(4a/	p
4A\)	.	.	.	4c#/	.	4cc#\)	.
=14	=14	=14	=14	=14	=14	=14	=14
4r	.	2.B/	.	4r	.	4r	.
(4G#\	.	.	.	4e/	.	(4ee\	.
4E\)	.	.	.	4g#/	.	4gg#\)	.
=15	=15	=15	=15	=15	=15	=15	=15
4r	.	8d/L	.	4r	.	4r	.
.	.	8c#/	.	.	.	.	.
(4C#/	.	8B/	.	4a/	.	(4aa\	.
.	.	8A/	.	.	.	.	.
4AA/)	.	8G#/	.	4cc#\	.	4ccc#\)	.
.	.	8A/J	.	.	.	.	.
=16	=16	=16	=16	=16	=16	=16	=16
4EE/	.	4c#\	.	4ee\	.	4eee\	.
4r	.	4B/	.	4r	.	4r	.
4r	.	4c#\	.	4r	.	4r	.
=17	=17	=17	=17	=17	=17	=17	=17
4r	.	2.e\	.	4r	.	4r	.
(4c#\	.	.	.	4A/	.	(4a/	.
4A\)	.	.	.	4c#/	.	4cc#\)	.
=18	=18	=18	=18	=18	=18	=18	=18
4r	.	2c#\	.	4r	.	4r	.
(4A\	.	.	.	4c#/	.	(4cc#\	.
4F#\)	.	4c#\	.	4a/	.	4aa\)	.
=19	=19	=19	=19	=19	=19	=19	=19
4r	.	2.a\	.	4r	.	4r	.
(4F#\	.	.	.	4d#/	.	(4dd#\	.
4D#\)	.	.	.	4f#/	.	4ff#\)	.
=20	=20	=20	=20	=20	=20	=20	=20
4r	.	2d#\	.	4r	.	4r	.
(4BB/	.	.	.	4f#/	.	(4ff#\	.
4AA/)	.	4d#\	.	4b\	.	4bb\)	.
=21	=21	=21	=21	=21	=21	=21	=21
4r	.	2.b\	.	4r	.	4r	.
(4GG#/	.	.	.	4e/	.	(4ee\	.
4EE/)	.	.	.	4g#/	.	4gg#\)	.
=22	=22	=22	=22	=22	=22	=22	=22
4r	.	8a\L	.	4r	.	4r	.
.	.	8g#\	.	.	.	.	.
(4C#/	.	8f#\	.	4g#/	.	(4gg#\	.
.	.	8e\	.	.	.	.	.
4BB/)	.	8d#\	.	4ee\	.	4eee\)	.
.	.	8e\J	.	.	.	.	.
=23	=23	=23	=23	=23	=23	=23	=23
(4AA/	.	4f#\	.	4r	.	4r	.
4FF#/)	.	4a\	.	4cc#\	.	4ccc#\	.
4BB/	.	4d#\	.	4a/	.	4aa\	.
=24	=24	=24	=24	=24	=24	=24	=24
4EE/	.	4e\	.	4g#/	.	4gg#\	.
4r	.	4r	.	4r	.	4r	.
4r	.	4r	.	4r	.	4e/	.
=25!|:	=25!|:	=25!|:	=25!|:	=25!|:	=25!|:	=25!|:	=25!|:
*>B	*>B	*>B	*>B	*>B	*>B	*>B	*>B
4E\	p	2.G#/	p	2.B/	p	2.dd\	p
4E\	.	.	.	.	.	.	.
4E\	.	.	.	.	.	.	.
=26	=26	=26	=26	=26	=26	=26	=26
4E\	.	2.A/	.	2.c#/	.	(8cc#\L	.
.	.	.	.	.	.	8ee\)	.
4E\	.	.	.	.	.	8dd\	.
.	.	.	.	.	.	8cc#\	.
4E\	.	.	.	.	.	8b\	.
.	.	.	.	.	.	8a\J	.
=27	=27	=27	=27	=27	=27	=27	=27
4E\	.	4B/	.	4d/	.	8g#/L	.
.	.	.	.	.	.	8e/	.
4r	.	4r	.	4r	.	8g#/	.
.	.	.	.	.	.	8b/	.
4r	.	4r	.	4r	.	8ee/	.
.	.	.	.	.	.	8ff#/J	.
=28	=28	=28	=28	=28	=28	=28	=28
2.r	.	2.r	.	2.r	.	8gg#\L	.
.	.	.	.	.	.	8ee\	.
.	.	.	.	.	.	8gg#\	.
.	.	.	.	.	.	8aa\	.
.	.	.	.	.	.	8bb\	.
.	.	.	.	.	.	8ccc#\J	.
=29	=29	=29	=29	=29	=29	=29	=29
4e\	p	2.g#\	p	2.b\	p	2.ddd\	p
4e\	.	.	.	.	.	.	.
4e\	.	.	.	.	.	.	.
=30	=30	=30	=30	=30	=30	=30	=30
4e\	.	2.a\	.	2.cc#\	.	(8ccc#\L	.
.	.	.	.	.	.	8eee\)	.
4e\	.	.	.	.	.	8ddd\	.
.	.	.	.	.	.	8ccc#\	.
4e\	.	.	.	.	.	8bb\	.
.	.	.	.	.	.	8aa\J	.
=31	=31	=31	=31	=31	=31	=31	=31
4e\	.	4b\	.	4dd\	.	8gg#\L	.
.	.	.	.	.	.	8ff#\	.
4r	.	4r	.	4r	.	8ee\	.
.	.	.	.	.	.	8dd#\	.
4r	.	4r	.	4r	.	8ee\	.
.	.	.	.	.	.	8ff#\J	.
=32	=32	=32	=32	=32	=32	=32	=32
2.r	.	2.r	.	2.r	.	8gg#\L	.
.	.	.	.	.	.	8aa\	.
.	.	.	.	.	.	8aa#\	.
.	.	.	.	.	.	8bb\	.
.	.	.	.	.	.	8bb#\	.
.	.	.	.	.	.	8ccc#\J	.
=33	=33	=33	=33	=33	=33	=33	=33
4E#\	p	4r	.	4r	.	8ddd\L	.
.	.	.	.	.	.	8bb\	.
4r	.	4g#\	p	4b\	p	8gg#\	.
.	.	.	.	.	.	8dd\	.
4r	.	4b\	.	4dd\	.	8ddd\	.
.	.	.	.	.	.	8ddd\J	.
=34	=34	=34	=34	=34	=34	=34	=34
4F#\	.	4r	.	4r	.	8ccc#\L	.
.	.	.	.	.	.	8aa\	.
4r	.	4c#\	.	4a/	.	8ff#\	.
.	.	.	.	.	.	8cc#\	.
4r	.	4a\	.	4cc#\	.	8ccc#\	.
.	.	.	.	.	.	8ccc#\J	.
=35	=35	=35	=35	=35	=35	=35	=35
4G#\	.	4r	.	4r	.	8ccc#\L	.
.	.	.	.	.	.	8gg#\	.
4r	.	4c#\	.	4e/	.	8ee\	.
.	.	.	.	.	.	8cc#\	.
4r	.	4e\	.	4cc#\	.	8ccc#\	.
.	.	.	.	.	.	8ccc#\J	.
=36	=36	=36	=36	=36	=36	=36	=36
4A\	.	4r	.	4r	.	8ccc#\L	.
.	.	.	.	.	.	8ff##\	.
4r	.	4c#\	.	4e/	.	8ee\	.
.	.	.	.	.	.	8cc#\	.
4r	.	4e\	.	4cc#\	.	8ccc#\	.
.	.	.	.	.	.	8ccc#\J	.
=37	=37	=37	=37	=37	=37	=37	=37
4G#\	.	4r	.	4r	.	8gg#\L	.
.	.	.	.	.	.	8ee\	.
4r	.	4c#\	.	4e/	.	8cc#\	.
.	.	.	.	.	.	8g#\	.
4r	.	4e\	.	4g#/	.	8g#\	.
.	.	.	.	.	.	8g#\J	.
=38	=38	=38	=38	=38	=38	=38	=38
4GG#/	.	4r	.	4r	.	8g#/L	.
.	.	.	.	.	.	8d#/	.
4r	.	4F#/	.	4G#/	.	8B#/	.
.	.	.	.	.	.	8G#/	.
4r	.	4F#/	.	4G#/	.	8G#/	.
.	.	.	.	.	.	8G#/J	.
=39	=39	=39	=39	=39	=39	=39	=39
(4CC#/	<	2.E/	<	2.G#/	<	(2.c#/	<
4CC#/	<	.	.	.	.	.	.
4CC#/)	.	.	.	.	.	.	.
=40	=40	=40	=40	=40	=40	=40	=40
(4CC#/	.	2.G#/	<	2.c#/	<	2.e/)	<
4CC#/	.	.	.	.	.	.	.
4CC#/)	.	.	.	.	.	.	.
=41	=41	=41	=41	=41	=41	=41	=41
(4CC#/	.	4.A/	.	[2.B#/	.	(2.d#/	.
4CC#/	.	.	.	.	.	.	.
.	.	8G#/L	.	.	.	.	.
4CC#/)	.	8A/	.	.	.	.	.
.	.	8G#/J	.	.	.	.	.
=42	=42	=42	=42	=42	=42	=42	=42
(4CC#/	.	4F#/	.	2B#/]	.	2g#/	.
4CC#/	.	4F#/	.	.	.	.	.
4CC#/)	.	4F#/	.	8A/L	.	4B#/)	.
.	.	.	.	8G#/J	.	.	.
=43	=43	=43	=43	=43	=43	=43	=43
(4CC#/	.	2.E/	.	2.G#/	.	4c#/	.
.	.	.	.	.	.	(d#q\	.
4CC#/	.	.	.	.	.	8c#/L	.
.	.	.	.	.	.	8B#/	.
4CC#/)	.	.	.	.	.	8c#/	.
.	.	.	.	.	.	8d#/J)	.
=44	=44	=44	=44	=44	=44	=44	=44
4C#/	ff	4E/	ff	4e/	ff	4e/	ff
4C#/	.	4E/	.	4e/	.	4e/	.
4C#/	.	4E/	.	4e/	.	4e/	.
=45	=45	=45	=45	=45	=45	=45	=45
2.r	.	2.r	.	2.r	.	2.r	.
=46	=46	=46	=46	=46	=46	=46	=46
2.r	.	2.r	.	2.r	.	4r	.
.	.	.	.	.	.	4r	.
.	.	.	.	.	.	4cc#\	p
=47	=47	=47	=47	=47	=47	=47	=47
2.r	.	2.r	.	4r	.	2.ee\	.
.	.	.	.	4cc#\	p	.	.
.	.	.	.	4a/	.	.	.
=48	=48	=48	=48	=48	=48	=48	=48
2.r	.	2.r	.	4r	.	2.b\	.
.	.	.	.	4g#/	.	.	.
.	.	.	.	4e/	.	.	.
=49	=49	=49	=49	=49	=49	=49	=49
2.r	.	2.r	.	4r	.	(8dd/L	.
.	.	.	.	.	.	8cc#/)	.
.	.	.	.	4c#/	.	(8b/	.
.	.	.	.	.	.	8a/)	.
.	.	.	.	4A/	.	(8g#/	.
.	.	.	.	.	.	8a/J)	.
=50	=50	=50	=50	=50	=50	=50	=50
2.r	.	2.r	.	4e/	.	(4cc#\	.
.	.	.	.	4r	.	4b\)	.
.	.	.	.	4r	.	4cc#\	.
=51	=51	=51	=51	=51	=51	=51	=51
2.r	.	2.r	.	4r	.	2.ee\	.
.	.	.	.	4cc#\	.	.	.
.	.	.	.	4a/	.	.	.
=52	=52	=52	=52	=52	=52	=52	=52
2.r	.	2.r	.	4r	.	2cc#\	.
.	.	.	.	4a/	.	.	.
.	.	.	.	4f#/	.	4cc#\	.
=53	=53	=53	=53	=53	=53	=53	=53
2.r	.	2.r	.	4r	.	2.aa\	.
.	.	.	.	4ff#\	.	.	.
.	.	.	.	4dd#\	.	.	.
=54	=54	=54	=54	=54	=54	=54	=54
2.r	.	2.r	.	4r	.	2dd#\	.
.	.	.	.	4b\	.	.	.
.	.	.	.	4a/	.	4dd#\	.
=55	=55	=55	=55	=55	=55	=55	=55
2.r	.	2.r	.	4r	.	2.bb\	.
.	.	.	.	4gn/	.	.	.
.	.	.	.	4e/	.	.	.
=56	=56	=56	=56	=56	=56	=56	=56
2.r	.	2.r	.	4r	.	(8aa\L	.
.	.	.	.	.	.	8ggn\	.
.	.	.	.	4b\	.	8ff#\	.
.	.	.	.	.	.	8ee\	.
.	.	.	.	4gn/	.	8ggn\	.
.	.	.	.	.	.	8ee\J)	.
=57	=57	=57	=57	=57	=57	=57	=57
2.r	.	4r	.	4r	.	(2dd\	.
.	.	4r	.	4a/	.	.	.
.	.	.	.	.	.	eeq\	.
.	.	.	.	.	.	&(ddq\&)	.
.	.	.	.	.	.	cc#q\	.
.	.	.	.	.	.	ddq\	.
.	.	4A/	p	4A/	.	8ff#\L	.
.	.	.	.	.	.	8ee\J)	.
=58	=58	=58	=58	=58	=58	=58	=58
4r	.	2.a\	.	4d/	.	4dd\	.
(4F#\	p	.	.	4r	.	4r	.
4D\)	.	.	.	4r	.	4r	.
=59	=59	=59	=59	=59	=59	=59	=59
4r	.	2.e\	.	4r	.	2.r	.
(4C#/	.	.	.	4r	.	.	.
4AA/)	.	.	.	4c#/	p	.	.
=60	=60	=60	=60	=60	=60	=60	=60
4r	.	8gn\L	.	2.a/	.	2.r	.
.	.	8f#\	.	.	.	.	.
(4DD/	.	8e\	.	.	.	.	.
.	.	8d\	.	.	.	.	.
4FF#/)	.	8c#\	.	.	.	.	.
.	.	8d\J	.	.	.	.	.
=61	=61	=61	=61	=61	=61	=61	=61
4r	.	8d/L	.	2.e/	.	4r	.
.	.	8c#/	.	.	.	.	.
(4AA/	.	8B/	.	.	.	4r	.
.	.	8A/	.	.	.	.	.
4Gn\)	.	8B/	.	.	.	4a/	p
.	.	8c#/J	.	.	.	.	.
=62	=62	=62	=62	=62	=62	=62	=62
4r	.	4d\	.	8gn/L	.	2.aa\	.
.	.	.	.	8f#/	.	.	.
(4F#\	.	4a\	.	8e/	.	.	.
.	.	.	.	8d/	.	.	.
4AA/)	.	4r	.	8c#/	.	.	.
.	.	.	.	8d/J	.	.	.
=63	=63	=63	=63	=63	=63	=63	=63
4r	.	4A/	.	8d/L	.	2.ee\	.
.	.	.	.	8c#/	.	.	.
(4C#/	.	4e\	.	8B/	.	.	.
.	.	.	.	8A/	.	.	.
4AA/)	.	4r	.	8G#/	.	.	.
.	.	.	.	8A/J	.	.	.
=64	=64	=64	=64	=64	=64	=64	=64
4r	.	4A/	.	2.a/	.	(8ggn\L	.
.	.	.	.	.	.	8ff#\)	.
(4D\	.	4f#\	.	.	.	(8ee\	.
.	.	.	.	.	.	8dd\)	.
4AA/)	.	4r	.	.	.	(8cc#\	.
.	.	.	.	.	.	8dd\J)	.
=65	=65	=65	=65	=65	=65	=65	=65
4r	.	4A/	.	8c#/L	.	(4ff#\	.
.	.	.	.	8a/	.	.	.
(4A\	.	4gn\	.	8cc#/	.	4ee\)	.
.	.	.	.	8a/	.	.	.
4Gn\)	.	4r	.	8ee/	.	4a/	.
.	.	.	.	8cc#/J	.	.	.
=66	=66	=66	=66	=66	=66	=66	=66
4r	.	4f#\	<	4dd\	.	2.aa\	<
(4F#\	<	4d\	<	4r	.	.	.
4D\)	<	4r	.	[4a/	.	.	.
=67	=67	=67	=67	=67	=67	=67	=67
4r	.	4A/	.	2a/]	<	2ff#\	<
(4C#/	.	4d\	.	.	.	.	.
4D\)	.	4r	.	[4f#/	.	4ff#\	.
=68	=68	=68	=68	=68	=68	=68	=68
4r	.	4B/	.	2f#/]	.	2.ddd\	.
(4AA#/	.	4d\	.	.	.	.	.
4BB/)	.	4r	.	[4dd\	.	.	.
=69	=69	=69	=69	=69	=69	=69	=69
4r	.	4B/	.	4dd\]	.	2gg#\	.
(4E\	.	4e\	.	4g#/	.	.	.
4D\)	.	4r	.	[4ee\	.	4gg#\	.
=70	=70	=70	=70	=70	=70	=70	=70
4r	.	4c#\	.	2ee\]	.	2.eee\	.
(4BB#/	.	4A/	.	.	.	.	.
4C#/)	.	4r	.	[4a/	.	.	.
=71	=71	=71	=71	=71	=71	=71	=71
4r	.	4c#\	.	2a/]	.	(8ddd\L	.
.	.	.	.	.	.	8ccc#\)	.
(4F#\	.	4f#\	.	.	.	(8bb\	.
.	.	.	.	.	.	8aa\)	.
4E\)	.	[4f#\	.	4cc#\	.	(8gg#\	.
.	.	.	.	.	.	8aa\J)	.
=72	=72	=72	=72	=72	=72	=72	=72
(4D\	f	4f#\]	f	4ff#\	f	(4bb\	f
4BB/)	.	4d\	.	4dd\	.	4ddd\)	.
4E\	.	4B/	.	4dd\	.	4gg#\	.
=73	=73	=73	=73	=73	=73	=73	=73
4AA/	.	4A/	.	4cc#\	.	4aa\	.
4r	.	4r	.	4r	.	4r	.
4r	.	4r	.	4r	.	4e/	p
=74	=74	=74	=74	=74	=74	=74	=74
2.d\	p	2.e\	p	2.g#/	p	2.b\	.
=75	=75	=75	=75	=75	=75	=75	=75
2.c#\	.	2.e\	.	2.a/	.	2.cc#\	.
=76	=76	=76	=76	=76	=76	=76	=76
.	.	.	.	.	.	(eeq\	.
4B\	.	4e\	.	4g#/	.	8dd\L)	.
.	.	.	.	.	.	&(8cc#\&)	.
4G#\	.	4e\	.	4b\	.	8dd\	.
.	.	.	.	.	.	8b\	.
4E\	.	4e\	.	4g#/	.	8ee\	.
.	.	.	.	.	.	8dd\J	.
=77	=77	=77	=77	=77	=77	=77	=77
4A\	.	4e\	.	4e/	.	4cc#\	.
4r	.	4r	.	4r	.	4aa\	.
4r	.	4r	.	4r	.	4r	.
=78	=78	=78	=78	=78	=78	=78	=78
2.D\	<	2.G#/	<	2.e/ 2.b/	<	2.bb\	<
=79	=79	=79	=79	=79	=79	=79	=79
2.C#/	<	2.A/	<	2.e/ 2.cc#/	<	2.ccc#\	<
=80	=80	=80	=80	=80	=80	=80	=80
2BB/	.	4A/	.	[4f#/	.	4.eee\	.
.	.	4a\	.	8f#/L]	.	.	.
.	.	.	.	8dd/	.	8ddd\L	.
4E\	.	4g#\	.	8dd/	.	8ccc#\	.
.	.	.	.	8dd/J	.	8bb\J	.
=81	=81	=81	=81	=81	=81	=81	=81
*>B1	*>B1	*>B1	*>B1	*>B1	*>B1	*>B1	*>B1
4AA/	.	4a\	.	4cc#\	.	4aa\	.
4r	.	4r	.	4r	.	4r	.
4r	.	4r	.	4r	.	4e/	.
=82:|!	=82:|!	=82:|!	=82:|!	=82:|!	=82:|!	=82:|!	=82:|!
*>B2	*>B2	*>B2	*>B2	*>B2	*>B2	*>B2	*>B2
4AA/	.	4a\	.	4cc#\	.	4aa\	.
4r	.	4r	.	4r	.	4r	.
=!|:	=!|:	=!|:	=!|:	=!|:	=!|:	=!|:	=!|:
*>C	*>C	*>C	*>C	*>C	*>C	*>C	*>C
4r	.	4E/	.	4e/	.	4r	.
=83	=83	=83	=83	=83	=83	=83	=83
2AA/	p	4C#/	.	4c#/	.	2cc#\ 2ee\	p
.	.	4E/	.	4e/	.	.	.
4EE/	.	4A/	.	4a/	.	4cc#\ 4ee\	.
=84	=84	=84	=84	=84	=84	=84	=84
2BB/	.	4A/	.	4a/	.	2dd\ 2ee\	.
.	.	4G#/	.	4g#/	.	.	.
4EE/	.	4A/	.	4a/	.	4dd\ 4ee\	.
=85	=85	=85	=85	=85	=85	=85	=85
2D\	.	4B/	.	4b\	.	2e/ 2ee/	.
.	.	c#q\	.	cc#q\	.	.	.
.	.	8B/L	.	8b\L	.	.	.
.	.	8A#/	.	8a#\	.	.	.
4EE/	.	8B/	.	8b\	.	4e/ 4ee/	.
.	.	8c#/J	.	8cc#\J	.	.	.
=86	=86	=86	=86	=86	=86	=86	=86
2C#/	.	4B/	.	4b\	.	2e/ 2ee/	.
.	.	4A/	.	4a/	.	.	.
4Cn/	.	[4A/	.	[4a/	.	4e/ 4ee/	.
=87	=87	=87	=87	=87	=87	=87	=87
2BB/	.	4A/]	.	4a/]	.	2e/ 2ee/	.
.	.	4G#/	.	4g#/	.	.	.
4AA#/	.	[4Gn/	.	[4gn/	.	4e/ 4ee/	.
=88	=88	=88	=88	=88	=88	=88	=88
2BB/	.	4G/]	.	4g/]	.	2e/ 2ee/	.
.	.	4F#/	.	4f#/	.	.	.
4B\	.	4G#/	.	4g#/	.	[4ee\	.
=89	=89	=89	=89	=89	=89	=89	=89
2BB/	.	4A/	.	(4a/	.	4ee\]	.
.	.	4F#/	.	&(4f#/&))	.	(4ee\	.
4B\	.	4B/	.	4b\	.	4dd#\)	.
=90	=90	=90	=90	=90	=90	=90	=90
4E\	.	4E/	.	4e/	.	4ee\	.
4r	.	4r	.	4r	.	4r	.
=:|!|:	=:|!|:	=:|!|:	=:|!|:	=:|!|:	=:|!|:	=:|!|:	=:|!|:
*>D	*>D	*>D	*>D	*>D	*>D	*>D	*>D
4r	.	4e\	p	4r	.	4r	.
=91	=91	=91	=91	=91	=91	=91	=91
(4c#\	p	4ee\	.	[2.e/	.	2.r	.
4G#\	.	4b\	.	.	.	.	.
4A\	.	4cc#\	.	.	.	.	.
=92	=92	=92	=92	=92	=92	=92	=92
4B\	.	4dd\	.	2.e/_	.	2.r	.
4F#\	.	4a\	.	.	.	.	.
4G#\	.	4b\	.	.	.	.	.
=93	=93	=93	=93	=93	=93	=93	=93
4A\	.	4cc#\	.	4e/]	.	2.r	.
4G#\	.	4b\	.	4e/	.	.	.
4F#\	.	4a\	.	4d#/	.	.	.
=94	=94	=94	=94	=94	=94	=94	=94
4E\)	.	4g#\	.	4e/	.	4r	.
4r	.	4E/	.	8dd#\L	.	4r	.
.	.	.	.	8ee\	.	.	.
4r	.	4E/	.	8dd#\	.	4ee\	.
.	.	.	.	8ee\J	.	.	.
=95	=95	=95	=95	=95	=95	=95	=95
(4C#/	<	[2.E/	.	4ee\	<	(4eee\	<
4GG#/	<	.	.	4b\	<	4bb\	<
4AA/	.	.	.	4cc#\	.	4ccc#\	.
=96	=96	=96	=96	=96	=96	=96	=96
4BB/	.	2.E/_	<	4dd\	.	4ddd\	.
4FF#/	.	.	.	4a/	.	4aa\	.
4GG#/	.	.	.	4b\	.	4bb\	.
=97	=97	=97	=97	=97	=97	=97	=97
4AA/	.	4E/]	.	4cc#\	.	4ccc#\	.
4GG#/	.	4e\	.	4b\	.	4bb\	.
4FF#/	.	[4e\	.	4a/	.	4aa\	.
=98	=98	=98	=98	=98	=98	=98	=98
4EE/)	.	4e\]	.	4g#/	.	4gg#\)	.
4r	.	4d#\	.	4r	.	4r	.
4r	.	4d\	p	4e/	p	(4ee\	p
=99	=99	=99	=99	=99	=99	=99	=99
2AA/	p	2E/ 2c#/	.	4c#/	.	4cc#\	.
.	.	.	.	4e/	.	4ee\	.
4EE/	.	4E/ 4c#/	.	4a/	.	4aa\)	.
=100	=100	=100	=100	=100	=100	=100	=100
2BB/	.	2E/ 2d/	.	4a/	.	(4aa\	.
.	.	.	.	4g#/	.	4gg#\	.
4EE/	.	4E/ 4d/	.	4a/	.	4aa\)	.
=101	=101	=101	=101	=101	=101	=101	=101
2GG#/	.	2E/ 2d/	.	4b\	.	4bb\	.
.	.	.	.	cc#q\	.	(ccc#q\	.
.	.	.	.	8b\L	.	8bb\L	.
.	.	.	.	8a#\	.	8aa#\J	.
4EE/	.	4E/ 4d/	.	8b\	.	8bb\L	.
.	.	.	.	8cc#\J	.	8ccc#\J)	.
=102	=102	=102	=102	=102	=102	=102	=102
2AA/	.	2E/ 2c#/	.	4b\	.	(4bb\	.
.	.	.	.	4a/	.	4aa\)	.
4C#/	.	[4A/	.	[4a/	.	[4eee\	.
=103	=103	=103	=103	=103	=103	=103	=103
2CC#/	.	4A/]	.	4a/]	.	2eee\]	.
.	.	4G#/	.	4g#/	.	.	.
4C#/	.	[4Gn/	.	[4gn/	.	[4eee\	.
=104	=104	=104	=104	=104	=104	=104	=104
2DD/	.	4G/]	.	4g/]	.	(4eee\]	.
.	.	4F#/	.	4f#/	.	4ddd\)	.
4D\	.	[4B/	.	[4b\	.	[4ddd\	.
=105	=105	=105	=105	=105	=105	=105	=105
2EE/	.	4B/]	.	4b\]	.	(4ddd\]	.
.	.	4A/	.	4a/	.	4ccc#\	.
4E\	.	4d\	.	4g#/	.	4bb\)	.
=106	=106	=106	=106	=106	=106	=106	=106
4AA/	.	4c#\	.	4a/	.	4aa\	.
4r	.	4r	.	4r	.	4r	.
==	==	==	==	==	==	==	==
*-	*-	*-	*-	*-	*-	*-	*-
!!!ENC: Craig Stuart Sapp
!!!END: 2005/12/08/
